build/assets/images/bg-b.svg

<svg width="672" height="1222" fill="none" xmlns="http://www.w3.org/2000/svg"><g clip-path="url(#clip0)"><path d="M-311 127v948h421.183c213.977 0 345.343-97.509 345.343-260.023 0-127.303-75.84-218.04-203.143-239.708C355.309 550.891 418.96 470.989 418.96 364c0-147.617-121.886-237-318.257-237H-311zm159.806 142.2H92.577c101.572 0 162.514 43.337 162.514 123.24 0 79.903-60.942 127.303-162.514 127.303h-243.771V269.2zm0 391.389H92.577c124.594 0 199.08 50.108 199.08 134.074 0 89.383-74.486 138.137-199.08 138.137h-243.771V660.589z" fill="#132631" fill-opacity=".05"/></g><defs><clipPath id="clip0"><path fill="#fff" d="M0 0h672v1222H0z"/></clipPath></defs></svg>

<svg width="672" height="1222" viewBox="0 0 672 1222" fill="none" xmlns="http://www.w3.org/2000/svg">
<g clip-path="url(#clip0)">
<path d="M-311 127V1075H110.183C324.16 1075 455.526 977.491 455.526 814.977C455.526 687.674 379.686 596.937 252.383 575.269C355.309 550.891 418.96 470.989 418.96 364C418.96 216.383 297.074 127 100.703 127H-311ZM-151.194 269.2H92.5771C194.149 269.2 255.091 312.537 255.091 392.44C255.091 472.343 194.149 519.743 92.5771 519.743H-151.194V269.2ZM-151.194 660.589H92.5771C217.171 660.589 291.657 710.697 291.657 794.663C291.657 884.046 217.171 932.8 92.5771 932.8H-151.194V660.589Z" fill="#132631" fill-opacity="0.05"/>
</g>
<defs>
<clipPath id="clip0">
<rect width="672" height="1222" fill="white"/>
</clipPath>
</defs>
</svg>
